mimes/16/application-x-bittorrent.svg

<?xml version="1.0" encoding="UTF-8" standalone="no"?>
<!-- Created with Inkscape (http://www.inkscape.org/) -->

<svg
   xmlns:svg="http://www.w3.org/2000/svg"
   xmlns="http://www.w3.org/2000/svg"
   xmlns:xlink="http://www.w3.org/1999/xlink"
   version="1.1"
   width="16"
   height="16"
   id="svg2841">
  <defs
     id="defs2843">
    <linearGradient
       id="linearGradient3480">
      <stop
         id="stop3482"
         style="stop-color:#548820;stop-opacity:1"
         offset="0" />
      <stop
         id="stop3484"
         style="stop-color:#548820;stop-opacity:0"
         offset="1" />
    </linearGradient>
    <linearGradient
       x1="41.455849"
       y1="57.205372"
       x2="40.808029"
       y2="26.149443"
       id="linearGradient2951"
       xlink:href="#linearGradient3480"
       gradientUnits="userSpaceOnUse"
       gradientTransform="matrix(0.3691332,0,0,0.3583766,-4.1017173,-4.8873815)" />
    <linearGradient
       id="linearGradient2264">
      <stop
         id="stop2266"
         style="stop-color:#d7e866;stop-opacity:1"
         offset="0" />
      <stop
         id="stop2268"
         style="stop-color:#8cab2a;stop-opacity:1"
         offset="1" />
    </linearGradient>
    <linearGradient
       x1="62.952984"
       y1="23.890965"
       x2="1.2715607"
       y2="23.890965"
       id="linearGradient2949"
       xlink:href="#linearGradient2264"
       gradientUnits="userSpaceOnUse"
       gradientTransform="matrix(0,-0.1804387,-0.1858545,0,15.402123,15.843123)" />
    <linearGradient
       x1="46.324303"
       y1="26.022909"
       x2="-8.7979088"
       y2="26.022909"
       id="linearGradient2946"
       xlink:href="#linearGradient4222"
       gradientUnits="userSpaceOnUse"
       gradientTransform="matrix(0,0.209274,-0.21456,0,16.545354,6.5695033)" />
    <linearGradient
       id="linearGradient5432">
      <stop
         id="stop5434"
         style="stop-color:#a55713;stop-opacity:1"
         offset="0" />
      <stop
         id="stop5436"
         style="stop-color:#a55713;stop-opacity:0"
         offset="1" />
    </linearGradient>
    <linearGradient
       x1="22.760281"
       y1="18.995085"
       x2="22.760281"
       y2="49.144836"
       id="linearGradient2943"
       xlink:href="#linearGradient5432"
       gradientUnits="userSpaceOnUse"
       gradientTransform="matrix(0.3691332,0,0,0.3583766,-3.3634522,-6.0682559)" />
    <linearGradient
       id="linearGradient2442">
      <stop
         id="stop2444"
         style="stop-color:#eda606;stop-opacity:1"
         offset="0" />
      <stop
         id="stop2446"
         style="stop-color:#f1be3b;stop-opacity:0"
         offset="1" />
    </linearGradient>
    <linearGradient
       x1="15.658319"
       y1="23.890965"
       x2="62.952984"
       y2="23.890963"
       id="linearGradient2941"
       xlink:href="#linearGradient2442"
       gradientUnits="userSpaceOnUse"
       gradientTransform="matrix(0,0.1804387,-0.1858545,0,9.4783646,0.1849429)" />
    <linearGradient
       id="linearGradient4222">
      <stop
         id="stop4224"
         style="stop-color:white;stop-opacity:1"
         offset="0" />
      <stop
         id="stop4226"
         style="stop-color:white;stop-opacity:0"
         offset="1" />
    </linearGradient>
    <linearGradient
       x1="39.00132"
       y1="25.982098"
       x2="-7.150826"
       y2="26.022907"
       id="linearGradient2938"
       xlink:href="#linearGradient4222"
       gradientUnits="userSpaceOnUse"
       gradientTransform="matrix(0,-0.209274,-0.21456,0,10.621595,9.4585629)" />
  </defs>
  <g
     id="layer1">
    <path
       d="m 14.625,11.407809 -3.672325,4.10491 -3.6539164,-4.10491 2.129858,0 0,-6.8228737 3.2050194,0 0,6.8228737 1.991364,0 z"
       id="path4348"
       style="fill:url(#linearGradient2949);fill-opacity:1;fill-rule:nonzero;stroke:url(#linearGradient2951);stroke-width:0.75;stroke-linecap:round;stroke-linejoin:round;stroke-miterlimit:4;stroke-opacity:1;stroke-dasharray:none;stroke-dashoffset:0;marker:none;visibility:visible;display:inline;overflow:visible" />
    <path
       d="m 11.883225,5.2002193 c -0.770833,0.010417 -0.867983,0.020833 -1.638816,0.03125 0,2.177083 0,4.354167 0,6.5312497 0.0068,0.341006 -0.3546504,0.403734 -0.6185314,0.375 -0.167986,-0.01535 -0.752987,-0.0098 -0.571618,0.133179 0.627747,0.716023 1.2554944,1.432047 1.8832414,2.148071 0.6875,-0.760417 1.375,-1.520833 2.0625,-2.28125 -0.251257,-0.01944 -0.734731,0.05313 -0.963846,-0.0719 -0.238543,-0.194312 -0.126929,-0.523923 -0.15293,-0.790162 0,-2.0251447 0,-4.0502907 0,-6.0754367 z"
       id="path6340"
       style="opacity:0.35400008;fill:none;stroke:url(#linearGradient2946);stroke-width:0.75;stroke-linecap:butt;stroke-linejoin:miter;stroke-miterlimit:4;stroke-opacity:1;stroke-dasharray:none;stroke-dashoffset:0;marker:none;visibility:visible;display:inline;overflow:visible" />
    <path
       d="M 8.7012416,4.6202569 5.0289172,0.51535088 1.3750003,4.6202569 l 2.0456469,0 0,6.8228791 3.1629144,0 0,-6.8228791 2.11768,0 z"
       id="path2426"
       style="fill:url(#linearGradient2941);fill-opacity:1;fill-rule:nonzero;stroke:url(#linearGradient2943);stroke-width:0.75;stroke-linecap:round;stroke-linejoin:round;stroke-miterlimit:4;stroke-opacity:1;stroke-dasharray:none;stroke-dashoffset:0;marker:none;visibility:visible;display:inline;overflow:visible" />
    <path
       d="m 5.0312506,1.6091009 c -0.6770833,0.7604167 -1.3541667,1.5208333 -2.03125,2.28125 0.2557383,0.023156 0.8876594,-0.070328 1.0998385,0.1120036 0.1850116,0.2192743 0.086305,0.5221303 0.1091968,0.7850627 -0.00948,1.7634777 -0.018962,3.5269557 -0.028443,5.2904338 0.7708333,0.01042 0.8258772,0.02083 1.5967105,0.03125 0,-1.9375001 0,-3.8750001 0,-5.8125001 -0.00116,-0.3261236 0.3442374,-0.4057293 0.6047124,-0.375 0.080855,-0.022832 0.755666,0.050673 0.670035,-0.046755 -0.6736,-0.7552484 -1.3472,-1.5104969 -2.0208,-2.2657454 z"
       id="path6336"
       style="opacity:0.35400008;fill:none;stroke:url(#linearGradient2938);stroke-width:0.75;stroke-linecap:butt;stroke-linejoin:miter;stroke-miterlimit:4;stroke-opacity:1;stroke-dasharray:none;stroke-dashoffset:0;marker:none;visibility:visible;display:inline;overflow:visible" />
  </g>
</svg>

<?xml version="1.0" encoding="UTF-8" standalone="no"?>
<!-- Created with Inkscape (http://www.inkscape.org/) -->
<svg
   xmlns:dc="http://purl.org/dc/elements/1.1/"
   xmlns:cc="http://creativecommons.org/ns#"
   xmlns:rdf="http://www.w3.org/1999/02/22-rdf-syntax-ns#"
   xmlns:svg="http://www.w3.org/2000/svg"
   xmlns="http://www.w3.org/2000/svg"
   xmlns:xlink="http://www.w3.org/1999/xlink"
   xmlns:sodipodi="http://sodipodi.sourceforge.net/DTD/sodipodi-0.dtd"
   xmlns:inkscape="http://www.inkscape.org/namespaces/inkscape"
   width="16px"
   height="16px"
   id="svg2841"
   sodipodi:version="0.32"
   inkscape:version="0.46"
   sodipodi:docname="application-x-bittorrent.svg"
   inkscape:output_extension="org.inkscape.output.svg.inkscape">
  <defs
     id="defs2843">
    <linearGradient
       inkscape:collect="always"
       id="linearGradient3480">
      <stop
         style="stop-color:#548820;stop-opacity:1;"
         offset="0"
         id="stop3482" />
      <stop
         style="stop-color:#548820;stop-opacity:0;"
         offset="1"
         id="stop3484" />
    </linearGradient>
    <linearGradient
       inkscape:collect="always"
       xlink:href="#linearGradient3480"
       id="linearGradient2951"
       gradientUnits="userSpaceOnUse"
       gradientTransform="matrix(0.3691332,0,0,0.3583766,-4.1017173,-4.8873815)"
       x1="41.455849"
       y1="57.205372"
       x2="40.808029"
       y2="26.149443" />
    <linearGradient
       id="linearGradient2264">
      <stop
         style="stop-color:#d7e866;stop-opacity:1;"
         offset="0"
         id="stop2266" />
      <stop
         style="stop-color:#8cab2a;stop-opacity:1;"
         offset="1"
         id="stop2268" />
    </linearGradient>
    <linearGradient
       inkscape:collect="always"
       xlink:href="#linearGradient2264"
       id="linearGradient2949"
       gradientUnits="userSpaceOnUse"
       gradientTransform="matrix(0,-0.1804387,-0.1858545,0,15.402123,15.843123)"
       x1="62.952984"
       y1="23.890965"
       x2="1.2715607"
       y2="23.890965" />
    <linearGradient
       inkscape:collect="always"
       xlink:href="#linearGradient4222"
       id="linearGradient2946"
       gradientUnits="userSpaceOnUse"
       gradientTransform="matrix(0,0.209274,-0.21456,0,16.545354,6.5695033)"
       x1="46.324303"
       y1="26.022909"
       x2="-8.7979088"
       y2="26.022909" />
    <linearGradient
       inkscape:collect="always"
       id="linearGradient5432">
      <stop
         style="stop-color:#a55713;stop-opacity:1;"
         offset="0"
         id="stop5434" />
      <stop
         style="stop-color:#a55713;stop-opacity:0;"
         offset="1"
         id="stop5436" />
    </linearGradient>
    <linearGradient
       inkscape:collect="always"
       xlink:href="#linearGradient5432"
       id="linearGradient2943"
       gradientUnits="userSpaceOnUse"
       gradientTransform="matrix(0.3691332,0,0,0.3583766,-3.3634522,-6.0682559)"
       x1="22.760281"
       y1="18.995085"
       x2="22.760281"
       y2="49.144836" />
    <linearGradient
       id="linearGradient2442">
      <stop
         style="stop-color:#eda606;stop-opacity:1;"
         offset="0"
         id="stop2444" />
      <stop
         style="stop-color:#f1be3b;stop-opacity:0;"
         offset="1"
         id="stop2446" />
    </linearGradient>
    <linearGradient
       inkscape:collect="always"
       xlink:href="#linearGradient2442"
       id="linearGradient2941"
       gradientUnits="userSpaceOnUse"
       gradientTransform="matrix(0,0.1804387,-0.1858545,0,9.4783646,0.1849429)"
       x1="15.658319"
       y1="23.890965"
       x2="62.952984"
       y2="23.890963" />
    <linearGradient
       inkscape:collect="always"
       id="linearGradient4222">
      <stop
         style="stop-color:#ffffff;stop-opacity:1;"
         offset="0"
         id="stop4224" />
      <stop
         style="stop-color:#ffffff;stop-opacity:0;"
         offset="1"
         id="stop4226" />
    </linearGradient>
    <linearGradient
       inkscape:collect="always"
       xlink:href="#linearGradient4222"
       id="linearGradient2938"
       gradientUnits="userSpaceOnUse"
       gradientTransform="matrix(0,-0.209274,-0.21456,0,10.621595,9.4585629)"
       x1="39.00132"
       y1="25.982098"
       x2="-7.150826"
       y2="26.022907" />
  </defs>
  <sodipodi:namedview
     id="base"
     pagecolor="#ffffff"
     bordercolor="#666666"
     borderopacity="1.0"
     inkscape:pageopacity="0.0"
     inkscape:pageshadow="2"
     inkscape:zoom="22.197802"
     inkscape:cx="8"
     inkscape:cy="8"
     inkscape:current-layer="layer1"
     showgrid="true"
     inkscape:grid-bbox="true"
     inkscape:document-units="px"
     inkscape:window-width="640"
     inkscape:window-height="679"
     inkscape:window-x="798"
     inkscape:window-y="132" />
  <metadata
     id="metadata2846">
    <rdf:RDF>
      <cc:Work
         rdf:about="">
        <dc:format>image/svg+xml</dc:format>
        <dc:type
           rdf:resource="http://purl.org/dc/dcmitype/StillImage" />
      </cc:Work>
    </rdf:RDF>
  </metadata>
  <g
     id="layer1"
     inkscape:label="Layer 1"
     inkscape:groupmode="layer">
    <path
       id="path4348"
       d="M 14.625,11.407809 L 10.952675,15.512719 L 7.2987586,11.407809 L 9.4286166,11.407809 L 9.4286166,4.5849353 L 12.633636,4.5849353 L 12.633636,11.407809 L 14.625,11.407809 z"
       style="display:inline;fill:url(#linearGradient2949);fill-opacity:1;fill-rule:nonzero;stroke:url(#linearGradient2951);stroke-width:0.75000000000000000;stroke-linecap:round;stroke-linejoin:round;marker:none;marker-start:none;marker-mid:none;marker-end:none;stroke-miterlimit:4;stroke-dasharray:none;stroke-dashoffset:0;stroke-opacity:1;visibility:visible;overflow:visible"
       sodipodi:nodetypes="cccccccc" />
    <path
       style="display:inline;opacity:0.35400002000000003;fill:none;fill-opacity:1;fill-rule:nonzero;stroke:url(#linearGradient2946);stroke-width:0.75000000000000000;stroke-linecap:butt;stroke-linejoin:miter;marker:none;marker-start:none;marker-mid:none;marker-end:none;stroke-miterlimit:4;stroke-dasharray:none;stroke-dashoffset:0;stroke-opacity:1;visibility:visible;overflow:visible"
       d="M 11.883225,5.2002193 C 11.112392,5.210636 11.015242,5.2210526 10.244409,5.2314693 C 10.244409,7.4085523 10.244409,9.5856363 10.244409,11.762719 C 10.251238,12.103725 9.8897586,12.166453 9.6258776,12.137719 C 9.4578916,12.122368 8.8728906,12.127927 9.0542596,12.270898 C 9.6820066,12.986921 10.309754,13.702945 10.937501,14.418969 C 11.625001,13.658552 12.312501,12.898136 13.000001,12.137719 C 12.748744,12.118279 12.26527,12.190846 12.036155,12.065818 C 11.797612,11.871506 11.909226,11.541895 11.883225,11.275656 C 11.883225,9.2505113 11.883225,7.2253653 11.883225,5.2002193 z"
       id="path6340"
       sodipodi:nodetypes="cccscccccc" />
    <path
       id="path2426"
       d="M 8.7012416,4.6202569 L 5.0289172,0.51535088 L 1.3750003,4.6202569 L 3.4206472,4.6202569 L 3.4206472,11.443136 L 6.5835616,11.443136 L 6.5835616,4.6202569 L 8.7012416,4.6202569 z"
       style="display:inline;fill:url(#linearGradient2941);fill-opacity:1;fill-rule:nonzero;stroke:url(#linearGradient2943);stroke-width:0.75000000000000000;stroke-linecap:round;stroke-linejoin:round;marker:none;marker-start:none;marker-mid:none;marker-end:none;stroke-miterlimit:4;stroke-dasharray:none;stroke-dashoffset:0;stroke-opacity:1;visibility:visible;overflow:visible"
       sodipodi:nodetypes="cccccccc" />
    <path
       style="display:inline;opacity:0.35400002000000003;fill:none;fill-opacity:1;fill-rule:nonzero;stroke:url(#linearGradient2938);stroke-width:0.75000000000000000;stroke-linecap:butt;stroke-linejoin:miter;marker:none;marker-start:none;marker-mid:none;marker-end:none;stroke-miterlimit:4;stroke-dasharray:none;stroke-dashoffset:0;stroke-opacity:1;visibility:visible;overflow:visible"
       d="M 5.0312506,1.6091009 C 4.3541673,2.3695176 3.6770839,3.1299342 3.0000006,3.8903509 C 3.2557389,3.9135068 3.88766,3.8200233 4.0998391,4.0023545 C 4.2848507,4.2216288 4.1861438,4.5244848 4.2090359,4.7874172 C 4.1995548,6.5508949 4.1900738,8.3143729 4.1805927,10.077851 C 4.951426,10.088268 5.0064699,10.098684 5.7773032,10.109101 C 5.7773032,8.1716009 5.7773032,6.2341009 5.7773032,4.2966009 C 5.7761432,3.9704773 6.1215406,3.8908716 6.3820156,3.9216009 C 6.4628706,3.8987689 7.1376816,3.9722738 7.0520506,3.8748463 C 6.3784506,3.1195979 5.7048506,2.3643494 5.0312506,1.6091009 z"
       id="path6336"
       sodipodi:nodetypes="ccccccsssc" />
  </g>
</svg>
